icons/elixir.svg

<svg width="32" height="32" viewBox="0 0 32 32" fill="none" xmlns="http://www.w3.org/2000/svg">
<path d="M17.8 8.591C19.879 13.175 25.44 15.091 24.941 21.065C24.359 28.082 19.39 29.849 16.625 29.974C14.402 30.1465 12.1963 29.4702 10.4521 28.0813C8.70785 26.6924 7.55474 24.6941 7.22501 22.489C5.61801 15.046 12.655 3.632 16.709 2C16.5754 4.25093 16.9482 6.50317 17.8 8.591ZM17.634 27.448C17.647 27.3925 17.6487 27.3349 17.6389 27.2787C17.6291 27.2225 17.6081 27.1688 17.577 27.121C16.984 26.021 11.767 25.476 10.67 25.369C11.1579 25.8697 11.7073 26.3065 12.305 26.669C13.1664 27.1956 14.1223 27.5492 15.119 27.71C15.922 27.831 17.467 27.933 17.635 27.447L17.634 27.448Z" fill="#7C648F"/>
<g opacity="0.25">
<path opacity="0.25" d="M18.248 10.618C22.718 15.441 24.693 15.597 24.485 21.096C24.236 27.572 19.942 29.287 17.427 29.516C13.227 30.067 9.932 27.988 9.069 23.83C7.312 17.063 12.978 6.02299 16.637 4.35999C16.7287 6.53141 17.2813 8.65848 18.258 10.6L18.248 10.618Z" fill="#26003D"/>
</g>
<g opacity="0.75">
<path opacity="0.75" d="M17.385 9.92101C20.369 14 24.319 13.7 25 19.641C25.094 26.564 21.4 28.924 18.763 29.589C14.263 30.868 10.249 28.944 8.669 24.589C5.634 17.589 11.32 6.07501 14.979 3.67401C15.2935 5.90387 16.1033 8.035 17.349 9.91101L17.385 9.92101Z" fill="url(#paint0_linear)"/>
</g>
<defs>
<linearGradient id="paint0_linear" x1="17.249" y1="29.597" x2="14.973" y2="3.99401" gradientUnits="userSpaceOnUse">
<stop stop-color="white" stop-opacity="0"/>
<stop offset="0.01" stop-color="#F7F6F8" stop-opacity="0.04"/>
<stop offset="0.09" stop-color="#AA9CB3" stop-opacity="0.39"/>
<stop offset="0.2" stop-color="#6F567E" stop-opacity="0.66"/>
<stop offset="0.32" stop-color="#452459" stop-opacity="0.86"/>
<stop offset="0.5" stop-color="#2D0843" stop-opacity="0.97"/>
<stop offset="1" stop-color="#26003D"/>
</linearGradient>
</defs>
</svg>

<svg width="32" height="32" fill="none" xmlns="http://www.w3.org/2000/svg"><path d="M17.8 8.591c2.079 4.584 7.64 6.5 7.141 12.474-.582 7.017-5.551 8.784-8.316 8.909a8.815 8.815 0 01-9.4-7.485C5.618 15.046 12.655 3.632 16.709 2c-.134 2.25.24 4.503 1.091 6.591zm-.166 18.857a.423.423 0 00-.057-.327c-.593-1.1-5.81-1.645-6.907-1.752.488.5 1.037.938 1.635 1.3.861.527 1.817.88 2.814 1.041.803.121 2.348.223 2.516-.263l-.001.001z" fill="#7C648F"/><path opacity=".25" d="M18.248 10.618c4.47 4.823 6.445 4.979 6.237 10.478-.249 6.476-4.543 8.191-7.058 8.42-4.2.551-7.495-1.528-8.358-5.686-1.757-6.767 3.909-17.807 7.568-19.47a15.324 15.324 0 001.621 6.24l-.01.018z" fill="#26003D"/><path opacity=".75" d="M17.385 9.921C20.369 14 24.319 13.7 25 19.641c.094 6.923-3.6 9.283-6.237 9.948-4.5 1.279-8.514-.645-10.094-5-3.035-7 2.651-18.514 6.31-20.915a15.083 15.083 0 002.37 6.237l.036.01z" fill="url(#paint0_linear)"/><defs><linearGradient id="paint0_linear" x1="17.249" y1="29.597" x2="14.973" y2="3.994" gradientUnits="userSpaceOnUse"><stop stop-color="#fff" stop-opacity="0"/><stop offset=".01" stop-color="#F7F6F8" stop-opacity=".04"/><stop offset=".09" stop-color="#AA9CB3" stop-opacity=".39"/><stop offset=".2" stop-color="#6F567E" stop-opacity=".66"/><stop offset=".32" stop-color="#452459" stop-opacity=".86"/><stop offset=".5" stop-color="#2D0843" stop-opacity=".97"/><stop offset="1" stop-color="#26003D"/></linearGradient></defs></svg>
